X: 20161
Q: "Slow"
M: C
L: 1/8
K: C
c2c2 c3e | d>e{e}d>c {B}A2G>A | c2c2 c3e | d>cde g3a |\
c2c2 c'2e>g | {f}f>e {e}d>c {B}A2 G>A | c2c2 a2g>e | g3e c2 :|
|: e>f |\
g2ag {f}e2c'e | {g}f>e {e}d>c {B}A2 e>f | g2a>g {g}f>e {e}d>c | d2e>g {b}a3c' |\
g2ab c'2eg | {g}f>e {e}d>c {B}A2 G>A | c2c2 a2g>e | g3e c2 :|


